frontend/public/svg/interface/dashboard-3.svg

<svg width="159" height="157" viewBox="0 0 159 157" fill="none" xmlns="http://www.w3.org/2000/svg">
<g clip-path="url(#clip0)">
<path d="M35.0165 132.618C35.867 132.56 36.7174 132.488 37.5678 132.417C39.3318 132.27 41.1551 132.117 42.9373 132.102C47.0141 132.063 51.1637 132.131 55.1761 132.194L58.2652 132.241C58.5308 132.258 58.7937 132.303 59.0493 132.377C57.7067 136.94 55.5617 141.225 52.715 145.033C51.3132 146.95 49.9627 147.629 48.0459 147.378C46.7548 147.231 45.4483 147.304 44.1811 147.591C43.4348 147.733 42.7551 148.115 42.2456 148.679C41.7362 149.244 41.4249 149.96 41.3592 150.718C41.2442 151.692 41.5139 153.05 43.4541 153.983C44.3078 154.419 45.2267 154.713 46.1747 154.853C46.9061 154.943 47.6376 155.038 48.3691 155.133C51.126 155.492 53.9765 155.862 56.8049 155.967C60.9395 156.12 65.1424 156.163 69.2068 156.204C71.6367 156.228 74.0658 156.253 76.4943 156.3C77.0997 156.334 77.7005 156.426 78.2883 156.573C78.5926 156.638 78.8969 156.703 79.1985 156.757C79.2363 156.763 79.274 156.767 79.3123 156.767H95.3347C95.3939 156.767 95.4524 156.759 95.509 156.743C95.7112 156.688 95.9134 156.621 96.1143 156.554C96.4524 156.421 96.8068 156.333 97.1676 156.294C98.089 156.256 99.0357 156.253 99.9505 156.249C101.597 156.272 103.243 156.204 104.881 156.044C106.934 155.851 108.938 155.296 110.798 154.403C111.37 154.165 111.867 153.774 112.234 153.273C112.6 152.772 112.823 152.18 112.879 151.561C112.857 150.929 112.663 150.314 112.319 149.784C111.973 149.253 111.49 148.828 110.921 148.553C109.782 147.939 108.538 147.545 107.254 147.391C106.384 147.284 105.505 147.26 104.63 147.318C104.412 147.326 104.192 147.333 103.973 147.338C103.356 145.704 102.657 144.122 101.978 142.588C100.621 139.519 99.3341 136.608 98.6495 133.31H101.462C104.453 133.31 107.298 133.304 110.145 133.325C110.875 133.331 111.629 133.396 112.356 133.456C112.826 133.496 113.296 133.536 113.767 133.562C114.409 133.598 115.052 133.649 115.695 133.699C117.282 133.857 118.877 133.912 120.472 133.862C123.991 133.671 127.5 133.254 130.768 132.831C134.119 132.397 137.964 131.772 141.194 129.828C152.767 122.857 158.481 112.904 158.167 100.243C157.976 92.4988 157.949 84.6175 157.923 76.9962L157.91 73.2829C157.898 70.1768 157.932 67.0159 157.964 63.9581C158.03 57.9686 158.095 51.7757 157.819 45.6879C157.44 38.587 156.602 31.5184 155.307 24.5268C153.932 16.6996 150.739 10.9909 145.547 7.07367C139.03 2.03978 130.882 -0.39464 122.678 0.24077C115.323 0.748905 108.589 1.08754 102.09 1.27712C95.4192 1.47255 88.6304 1.44662 82.0634 1.42121C72.4488 1.38603 62.5071 1.34814 52.7228 1.99568C48.6623 2.26473 44.5146 2.35655 40.5035 2.44515C36.8676 2.52658 33.1081 2.60934 29.4117 2.82431C22.3069 3.23668 16.1917 5.50909 11.2351 9.5774C8.67482 11.5921 6.53818 14.095 4.94857 16.9415C3.35894 19.7881 2.34779 22.9219 1.97359 26.1621C1.51511 30.693 1.30478 35.2457 1.34354 39.7996L1.33965 40.1801C1.32145 42.0419 1.44761 43.9218 1.56919 45.7406C1.66672 47.1882 1.76426 48.6853 1.79222 50.1504C2.01459 63.1468 2.2129 76.8959 2.41576 93.4193C2.40945 94.1698 2.35755 94.9203 2.26036 95.6649C2.15885 96.4531 2.10396 97.2459 2.0959 98.0407C2.1076 99.2648 2.17586 100.501 2.24218 101.697C2.3202 103.109 2.40144 104.569 2.38584 105.996C2.32927 111.211 4.05881 116.234 7.52702 120.926C13.86 129.48 23.1099 133.422 35.0165 132.618ZM149.471 75.0484L149.475 81.8645C149.481 88.6552 149.488 95.6753 149.439 102.581C149.412 104.063 149.178 105.534 148.746 106.952C147.704 110.495 145.975 113.797 143.659 116.67C140.138 121.025 135.313 123.626 128.907 124.622C125.342 125.176 121.58 125.591 117.403 125.89C116.284 125.933 115.163 125.877 114.054 125.724C113.33 125.647 112.581 125.567 111.836 125.538C109.005 125.428 106.172 125.346 103.34 125.264C97.9355 125.107 92.3464 124.945 86.8684 124.587C78.9099 124.066 70.8655 123.935 62.9115 123.935C58.9316 123.935 54.9732 123.969 51.0602 124C45.185 124.049 39.1101 124.097 33.1393 124.036C28.7439 123.991 25.2354 123.294 22.0969 121.84C19.7861 120.809 17.7088 119.318 15.9914 117.457C14.2741 115.596 12.9525 113.405 12.1071 111.016C10.3853 106.355 9.80274 102.091 10.3262 97.9795C10.4516 96.773 10.4937 95.56 10.4523 94.3476C10.4484 93.9763 10.4438 93.6056 10.4445 93.2363C10.4506 90.2148 10.4592 87.1934 10.4706 84.1713C10.4979 76.1115 10.5258 67.7775 10.4666 59.5789C10.4432 56.3712 10.3314 53.1159 10.2235 49.9668C10.0934 46.2535 9.96334 42.4159 9.97699 38.6472C9.95254 33.0938 11.1799 27.6065 13.5674 22.5947C16.0915 17.3622 20.6547 14.092 27.1398 12.8764C30.952 12.1598 34.7414 11.7754 37.9457 11.492C51.9121 10.2601 66.1645 10.1415 79.9437 10.0268C83.0315 10.0012 86.1193 9.97133 89.2065 9.93746C93.5889 9.88404 97.9713 9.83609 102.353 9.7931C109.303 9.72078 116.489 9.64639 123.558 9.5402C128.495 9.4516 133.336 11.0124 138.807 14.4051C141.945 16.3504 144.139 19.564 145.328 23.9555C146.279 27.4733 146.968 31.1338 147.633 34.6771L147.986 36.55C148.429 38.8757 148.808 41.436 149.144 44.3792C149.349 46.2286 149.45 48.0877 149.447 49.9484C149.471 56.062 149.476 62.1767 149.464 68.2921V74.9317C149.463 74.9702 149.465 75.0086 149.471 75.0471V75.0484ZM63.4044 145.795C64.2896 144.022 65.0613 142.194 65.7146 140.323C66.277 138.454 66.714 136.551 67.0241 134.625C67.1483 133.947 67.2744 133.263 67.4142 132.574L89.9334 132.965C90.308 138.248 91.9439 142.917 93.7489 147.193H62.7484C62.963 146.728 63.184 146.261 63.4044 145.795Z" fill="black"/>
<path d="M126.331 34.0147C124.846 33.0375 123.481 33.9822 122.825 34.4343C121.586 35.2474 120.442 36.1968 119.413 37.2644C116.267 40.704 113.118 44.2445 110.073 47.6679L107.685 50.35C105.706 52.5715 103.729 54.7944 101.752 57.0188C97.7839 61.48 93.8105 65.9367 89.8313 70.3894C89.116 71.19 88.326 71.9372 87.4905 72.7281C87.222 72.9821 86.9502 73.2408 86.6758 73.5046C86.0978 73.0727 85.5347 72.6466 84.9814 72.2271C83.4651 71.0792 82.0327 69.9959 80.5385 68.9698L79.9293 68.5523C75.8265 65.736 71.5826 62.8232 67.3029 60.1152C63.337 57.6077 60.9371 57.9654 57.7842 61.5399C56.4559 63.0467 55.0092 64.6205 53.0937 66.6455C49.3857 70.5646 45.6759 74.4818 41.964 78.397C36.9358 83.7037 31.9098 89.0131 26.8858 94.325C26.0421 95.2338 25.252 96.1908 24.5197 97.1914C24.2822 97.4644 24.1027 97.7829 23.9921 98.1275C23.8815 98.4722 23.8422 98.8357 23.8765 99.1959C23.9109 99.5562 24.0181 99.906 24.1918 100.224C24.3654 100.541 24.6017 100.82 24.8864 101.043C25.3786 101.537 26.0413 101.822 26.7376 101.84C27.496 101.809 28.2161 101.497 28.7584 100.965C29.9223 99.9295 31.0243 98.8037 32.1102 97.695C35.1237 94.6149 38.1363 91.5335 41.148 88.4515C47.0935 82.3676 53.0446 76.2902 59.0014 70.218C59.9851 69.2167 61.0665 68.2637 62.1127 67.3445C62.4824 67.0194 62.8508 66.6937 63.218 66.3673C63.348 66.4455 63.4736 66.5204 63.5945 66.5927C64.0821 66.8845 64.5048 67.136 64.8897 67.4187L68.6105 70.1333C73.266 73.5287 78.0801 77.0387 82.7765 80.5422C86.3293 83.193 88.7051 83.148 91.8541 80.3605C93.529 78.8771 95.1122 77.2941 96.596 75.6199C104.364 66.8702 110.875 59.5021 117.403 51.9844C119.905 49.1017 122.419 45.9541 124.88 42.6265C125.907 41.1317 126.723 39.5028 127.307 37.7854C127.903 36.1887 127.548 34.8134 126.331 34.0147Z" fill="black"/>
</g>
<defs>
<clipPath id="clip0">
<rect width="158" height="157" fill="white" transform="translate(0.777344)"/>
</clipPath>
</defs>
</svg>

<svg xmlns="http://www.w3.org/2000/svg" width="159" height="157" fill="none" viewBox="0 0 159 157"><g fill="#000" clip-path="url(#a)"><path d="M35.017 132.618c.85-.058 1.7-.13 2.55-.201 1.765-.147 3.588-.3 5.37-.315 4.077-.039 8.227.029 12.24.092l3.088.047q.4.025.784.136a40 40 0 0 1-6.334 12.656c-1.402 1.917-2.752 2.596-4.67 2.345a11.6 11.6 0 0 0-3.864.213 3.49 3.49 0 0 0-2.822 3.127c-.115.974.155 2.332 2.095 3.265a8.8 8.8 0 0 0 2.72.87q1.098.136 2.195.28c2.757.359 5.608.729 8.436.834 4.135.153 8.337.196 12.402.237 2.43.024 4.859.049 7.287.096a9.6 9.6 0 0 1 1.794.273c.305.065.609.13.91.184q.057.01.114.01h16.023a.6.6 0 0 0 .174-.024c.202-.055.404-.122.605-.189a4 4 0 0 1 1.054-.26c.921-.038 1.868-.041 2.782-.045a44 44 0 0 0 4.931-.205 17.5 17.5 0 0 0 5.917-1.641 3.4 3.4 0 0 0 2.081-2.842 3.47 3.47 0 0 0-1.958-3.008 10.3 10.3 0 0 0-3.667-1.162 14 14 0 0 0-2.624-.073q-.328.012-.657.02c-.617-1.634-1.316-3.216-1.995-4.75-1.357-3.069-2.644-5.98-3.328-9.278h2.812c2.991 0 5.836-.006 8.683.015.73.006 1.484.071 2.211.131.47.04.94.08 1.411.106.642.036 1.285.087 1.928.137q2.383.237 4.777.163c3.519-.191 7.028-.608 10.296-1.031 3.351-.434 7.196-1.059 10.426-3.003 11.573-6.971 17.287-16.924 16.973-29.585-.191-7.744-.218-15.625-.244-23.247l-.013-3.713c-.012-3.106.022-6.267.054-9.325.066-5.99.131-12.182-.145-18.27a164 164 0 0 0-2.512-21.161c-1.375-7.827-4.568-13.536-9.76-17.453A33.2 33.2 0 0 0 122.678.24c-7.355.508-14.089.847-20.588 1.036-6.67.196-13.46.17-20.027.144-9.614-.035-19.556-.073-29.34.575-4.06.269-8.208.36-12.22.45-3.635.08-7.395.163-11.091.378-7.105.413-13.22 2.685-18.177 6.753a24.7 24.7 0 0 0-6.286 7.365 24.7 24.7 0 0 0-2.975 9.22c-.459 4.531-.67 9.084-.63 13.638l-.004.38c-.019 1.862.108 3.742.23 5.56.097 1.448.194 2.945.222 4.41.223 12.997.42 26.746.624 43.27q-.01 1.126-.156 2.245a20 20 0 0 0-.164 2.376c.012 1.224.08 2.46.146 3.656.078 1.412.16 2.872.144 4.299-.057 5.215 1.673 10.238 5.141 14.93 6.333 8.554 15.583 12.496 27.49 11.692m114.454-57.57.004 6.817c.006 6.79.013 13.81-.036 20.716a16 16 0 0 1-.693 4.371 28.1 28.1 0 0 1-5.087 9.718c-3.521 4.355-8.346 6.956-14.752 7.952-3.565.554-7.327.969-11.504 1.268a19 19 0 0 1-3.349-.166c-.724-.077-1.473-.157-2.218-.186-2.831-.11-5.664-.192-8.496-.274-5.404-.157-10.994-.319-16.472-.677-7.958-.521-16.002-.652-23.956-.652-3.98 0-7.939.034-11.852.065-5.875.049-11.95.097-17.92.036-4.396-.045-7.905-.742-11.043-2.196a18.65 18.65 0 0 1-6.106-4.383 18.7 18.7 0 0 1-3.884-6.441c-1.722-4.661-2.304-8.925-1.78-13.037q.188-1.811.125-3.631-.007-.558-.008-1.112.01-4.532.027-9.065c.027-8.06.055-16.394-.004-24.592-.024-3.208-.136-6.463-.244-9.612-.13-3.713-.26-7.551-.246-11.32a36.95 36.95 0 0 1 3.59-16.052c2.524-5.233 7.088-8.503 13.573-9.719 3.812-.716 7.601-1.1 10.806-1.384 13.966-1.232 28.219-1.35 41.998-1.465q4.63-.039 9.263-.09 6.573-.079 13.146-.144c6.95-.072 14.136-.147 21.205-.253 4.937-.088 9.778 1.472 15.249 4.865 3.138 1.945 5.332 5.159 6.521 9.55.951 3.518 1.64 7.179 2.305 10.722l.353 1.873c.443 2.326.822 4.886 1.158 7.83a50 50 0 0 1 .303 5.568q.036 9.171.017 18.344v6.64a1 1 0 0 0 .007.115zm-86.067 70.747a47 47 0 0 0 2.31-5.472 44 44 0 0 0 1.31-5.698c.124-.678.25-1.362.39-2.051l22.52.391c.374 5.283 2.01 9.952 3.815 14.228h-31c.214-.465.435-.932.655-1.398"/><path d="M126.331 34.015c-1.485-.977-2.85-.033-3.506.42a20 20 0 0 0-3.412 2.83c-3.146 3.439-6.295 6.98-9.34 10.403l-2.388 2.682a7761 7761 0 0 0-5.933 6.669 7672 7672 0 0 1-11.92 13.37c-.716.801-1.506 1.548-2.341 2.34q-.403.38-.815.776-.866-.648-1.695-1.278c-1.516-1.148-2.948-2.231-4.442-3.257l-.61-.418c-4.103-2.816-8.346-5.729-12.626-8.437-3.966-2.507-6.366-2.15-9.519 1.425a194 194 0 0 1-4.69 5.105q-5.562 5.88-11.13 11.752a24204 24204 0 0 0-15.078 15.928 32 32 0 0 0-2.366 2.866 2.67 2.67 0 0 0 .366 3.852 2.7 2.7 0 0 0 1.852.797 3.07 3.07 0 0 0 2.02-.875c1.164-1.035 2.266-2.161 3.352-3.27q4.52-4.62 9.038-9.243 8.918-9.126 17.853-18.234c.984-1.001 2.066-1.954 3.112-2.874q.555-.487 1.105-.977l.376.226c.488.291.91.543 1.296.826l3.72 2.714c4.656 3.396 9.47 6.906 14.167 10.41 3.552 2.65 5.928 2.605 9.077-.183a56 56 0 0 0 4.742-4.74c7.768-8.75 14.279-16.118 20.807-23.636a154 154 0 0 0 7.477-9.358 19.8 19.8 0 0 0 2.427-4.84c.596-1.597.241-2.973-.976-3.771"/></g><defs><clipPath id="a"><path fill="#fff" d="M.777 0h158v157h-158z"/></clipPath></defs></svg>
